usr/share/icons/biglinux-icons-material/scalable/apps/GDevelop.svg

<?xml version="1.0" encoding="UTF-8" standalone="no"?>
<svg
   width="24"
   height="24"
   viewBox="0 0 24 24"
   fill="none"
   version="1.1"
   id="svg154"
   sodipodi:docname="GDevelop.svg"
   inkscape:version="1.2.2 (b0a8486541, 2022-12-01)"
   xml:space="preserve"
   xmlns:inkscape="http://www.inkscape.org/namespaces/inkscape"
   xmlns:sodipodi="http://sodipodi.sourceforge.net/DTD/sodipodi-0.dtd"
   xmlns:xlink="http://www.w3.org/1999/xlink"
   xmlns="http://www.w3.org/2000/svg"
   xmlns:svg="http://www.w3.org/2000/svg"
   xmlns:sketch="http://www.bohemiancoding.com/sketch/ns"><sodipodi:namedview
     id="namedview156"
     pagecolor="#ffffff"
     bordercolor="#000000"
     borderopacity="1"
     inkscape:showpageshadow="0"
     inkscape:pageopacity="1"
     inkscape:pagecheckerboard="false"
     inkscape:deskcolor="#ffffff"
     showgrid="true"
     inkscape:zoom="16"
     inkscape:cx="5.59375"
     inkscape:cy="11.96875"
     inkscape:window-width="1920"
     inkscape:window-height="1052"
     inkscape:window-x="0"
     inkscape:window-y="0"
     inkscape:window-maximized="1"
     inkscape:current-layer="svg154"
     showguides="true"
     guidecolor="#ff0000"
     guideopacity="1"
     inkscape:lockguides="true"
     showborder="true"
     borderlayer="true"><inkscape:grid
       type="xygrid"
       id="grid356"
       color="#000000"
       opacity="0.10196078"
       empcolor="#000000"
       empopacity="0.10196078"
       snapvisiblegridlinesonly="true"
       enabled="true"
       visible="true"
       dotted="false" /><sodipodi:guide
       position="4.003125,23.042969"
       orientation="1,0"
       id="guide764"
       inkscape:locked="true" /><sodipodi:guide
       position="5.0007813,21.049219"
       orientation="1,0"
       id="guide2218"
       inkscape:locked="true" /><sodipodi:guide
       position="3.6445312,20"
       orientation="0,-1"
       id="guide2220"
       inkscape:locked="true" /><sodipodi:guide
       position="3.796875,5"
       orientation="0,-1"
       id="guide2222"
       inkscape:locked="true" /><sodipodi:guide
       position="3.625,4"
       orientation="0,-1"
       id="guide2224"
       inkscape:locked="true" /><sodipodi:guide
       position="19,4.8984375"
       orientation="1,0"
       id="guide2226"
       inkscape:locked="true" /><sodipodi:guide
       position="20,3.3312502"
       orientation="1,0"
       id="guide2228"
       inkscape:locked="true" /><sodipodi:guide
       position="22.875,19"
       orientation="0,-1"
       id="guide2230"
       inkscape:locked="true" /></sodipodi:namedview><defs
     id="defs152"><radialGradient
       id="radialGradient1281"
       cx="0"
       cy="0"
       r="1"
       gradientUnits="userSpaceOnUse"
       gradientTransform="translate(12 1) rotate(90) scale(22)"><stop
         stop-color="#8FC8FF"
         id="stop1277"
         offset="0.00424011"
         style="stop-color:#402371;stop-opacity:1;" /><stop
         offset="0.99575949"
         stop-color="#0056A8"
         id="stop1279"
         style="stop-color:#231848;stop-opacity:1;" /></radialGradient><radialGradient
       id="paint0_radial_29_23"
       cx="0"
       cy="0"
       r="1"
       gradientUnits="userSpaceOnUse"
       gradientTransform="translate(12 1) rotate(90) scale(22)"><stop
         stop-color="#8FC8FF"
         id="stop147"
         offset="0"
         style="stop-color:#f6f6f6;stop-opacity:1;" /><stop
         offset="1"
         stop-color="#0056A8"
         id="stop149"
         style="stop-color:#cfcfcf;stop-opacity:1;" /></radialGradient><radialGradient
       inkscape:collect="always"
       xlink:href="#radialGradient1281"
       id="radialGradient1161"
       gradientUnits="userSpaceOnUse"
       gradientTransform="matrix(3.9045581e-8,90.059469,-90.006811,0,-107.36954,-11.19048)"
       cx="0.17911513"
       cy="-1.7483425"
       r="1"
       fx="0.17911513"
       fy="-1.7483425" /><radialGradient
       id="paint0_radial_10_2"
       cx="0"
       cy="0"
       r="1"
       gradientUnits="userSpaceOnUse"
       gradientTransform="matrix(-10.999959,21.999967,-21.999967,-10.999959,17.5,1)"
       xlink:href="#paint0_radial_29_23"><stop
         stop-color="#777777"
         id="stop2847" /><stop
         offset="1"
         stop-color="#222222"
         id="stop2849" /></radialGradient><linearGradient
       x1="12"
       y1="1"
       x2="12"
       y2="23"
       gradientUnits="userSpaceOnUse"
       gradientTransform="matrix(0.75,0,0,0.75,-7.98374e-6,2.65834e-5)"
       spreadMethod="pad"
       id="linearGradient44915"><stop
         style="stop-opacity:1;stop-color:#ff5f5f"
         offset="0"
         id="stop44911" /><stop
         style="stop-opacity:1;stop-color:#e82e34"
         offset="1"
         id="stop44913" /></linearGradient></defs><path
     d="M 50,5 C 9.0909092,5 5,25.454546 5,50 5,82.727274 17.272728,95 50,95 82.727274,95 95,82.727274 95,50 95,25.454546 90.909093,5 50,5 Z"
     sketch:type="MSShapeGroup"
     id="path6"
     style="font-variation-settings:normal;display:inline;opacity:1;vector-effect:none;fill:url(#radialGradient1161);fill-opacity:1;stroke-width:4.56656;stroke-linecap:butt;stroke-linejoin:miter;stroke-miterlimit:4;stroke-dasharray:none;stroke-dashoffset:0;stroke-opacity:1;-inkscape-stroke:none;stop-color:#000000;stop-opacity:1"
     sodipodi:nodetypes="sssss"
     inkscape:label="Shape"
     transform="matrix(0.24444444,0,0,0.24444444,-0.22222222,-0.22222222)"
     sodipodi:insensitive="true" /><g
     inkscape:groupmode="layer"
     id="layer4"
     inkscape:label="Colors References"
     style="display:inline"
     sodipodi:insensitive="true"
     inkscape:highlight-color="#cc5ecc"><rect
       style="display:inline;fill:#3947be;fill-opacity:1;stroke-width:22.6872;paint-order:markers stroke fill"
       id="rect7816"
       width="1.9999923"
       height="2"
       x="12"
       y="-2.9999964"
       rx="0"
       ry="0"
       inkscape:label="Dark Blue" /><rect
       style="display:inline;fill:#6c7ad8;fill-opacity:1;stroke-width:22.6873;paint-order:markers stroke fill"
       id="rect7820"
       width="2"
       height="2.0000076"
       x="9"
       y="-3.0000041"
       rx="0"
       ry="0"
       inkscape:label="Blue" /><rect
       style="display:inline;fill:#33cc33;fill-opacity:1;stroke-width:22.6873;paint-order:markers stroke fill"
       id="rect7814"
       width="2"
       height="2.0000076"
       x="6"
       y="-3.0000041"
       rx="0"
       ry="0"
       inkscape:label="Green" /><rect
       style="display:inline;fill:#ffc328;fill-opacity:1;stroke-width:22.6872;paint-order:markers stroke fill"
       id="rect7824"
       width="1.9999926"
       height="2.0000002"
       x="3"
       y="-2.9999964"
       rx="0"
       ry="0"
       inkscape:label="Yellow" /><rect
       style="display:inline;fill:#cc5e55;fill-opacity:1;stroke-width:22.6873;paint-order:markers stroke fill"
       id="rect7822"
       width="2"
       height="2.0000076"
       x="0"
       y="-3.0000038"
       rx="0"
       ry="0"
       inkscape:label="Red" /><rect
       style="display:inline;fill:#0bb1cb;fill-opacity:1;stroke-width:22.6872;paint-order:markers stroke fill"
       id="rect3087"
       width="1.9999919"
       height="1.9999996"
       x="-3"
       y="12.000004"
       rx="0"
       ry="0"
       inkscape:label="Blue 4" /><rect
       style="display:inline;fill:#2a92c9;fill-opacity:1;stroke-width:22.6873;paint-order:markers stroke fill"
       id="rect3085"
       width="2"
       height="2.0000079"
       x="-3"
       y="8.9999962"
       rx="0"
       ry="0"
       inkscape:label="Blue 3" /><rect
       style="display:inline;fill:#006699;fill-opacity:1;stroke-width:22.6873;paint-order:markers stroke fill"
       id="rect3089"
       width="2"
       height="2.0000076"
       x="-3"
       y="6.0000038"
       rx="0"
       ry="0"
       inkscape:label="Blue 2" /><rect
       style="display:inline;fill:#002a44;fill-opacity:1;stroke-width:22.6873;paint-order:markers stroke fill"
       id="rect3083"
       width="2"
       height="2.0000076"
       x="-3"
       y="2.9999962"
       rx="0"
       ry="0"
       inkscape:label="Blue 1" /><rect
       style="display:inline;fill:#2c2d3d;fill-opacity:1;stroke-width:22.6873;paint-order:markers stroke fill"
       id="rect3456"
       width="2"
       height="2.0000076"
       x="-3"
       y="-3.8146973e-06"
       rx="0"
       ry="0"
       inkscape:label="Gray" /><rect
       style="display:inline;fill:#16171c;fill-opacity:1;stroke-width:22.6872;paint-order:markers stroke fill"
       id="rect3091"
       width="1.9999924"
       height="2"
       x="-3"
       y="-3"
       rx="0"
       ry="0"
       inkscape:label="Black" /></g><path
     d="m 13.076668,6.0775188 c -3.7686849,0 -4.8455824,1.7717453 -4.8455824,4.3071332 0,2.53539 1.0768975,4.307593 4.8455824,4.307593 1.076898,0 1.991437,-0.269224 1.991437,-0.269224 l 1.239258,-4.038369 C 16.560076,9.5604677 16.691248,9.3082118 15.768914,9.3082118 h -3.499461 c -0.447637,0 -0.808132,0.3600362 -0.808132,0.8072162 0,0.447637 0.360495,0.807673 0.807673,0.807673 h 1.737347 l -0.579268,2.126278 c 0,0 -0.103646,0.02752 -0.349946,0.02752 -2.422562,0 -3.2302347,-0.871425 -3.2302347,-2.692245 0,-1.8208197 0.8072137,-2.6922451 3.2302347,-2.6922451 h 5.922482 L 18.46116,6.0779806 H 13.077127 Z M 5.0003908,9.3077531 v 1.6153479 c 0,3.865918 2.6922456,6.99938 8.0762772,6.99938 3.230236,0 4.845583,-1.076899 5.922482,-2.692246 h -2.207458 c -0.807214,0.538449 -1.561227,1.076898 -3.715024,1.076898 -3.7686849,0 -6.4609298,-2.410178 -6.4609298,-5.384032 V 9.3082118 Z"
     fill="#78c2e0"
     id="path60140"
     style="fill:#ffffff;fill-opacity:1;stroke-width:0.458644" /></svg>

<svg xmlns="http://www.w3.org/2000/svg" xmlns:xlink="http://www.w3.org/1999/xlink" xml:space="preserve" width="24" height="24" fill="none"><defs><radialGradient id="a" cx="0" cy="0" r="1" gradientTransform="matrix(0 22 -22 0 12 1)" gradientUnits="userSpaceOnUse"><stop offset=".004" stop-color="#8FC8FF" style="stop-color:#402371;stop-opacity:1"/><stop offset=".996" stop-color="#0056A8" style="stop-color:#231848;stop-opacity:1"/></radialGradient><radialGradient id="b" cx="0" cy="0" r="1" gradientTransform="matrix(0 22 -22 0 12 1)" gradientUnits="userSpaceOnUse"><stop offset="0" stop-color="#8FC8FF" style="stop-color:#f6f6f6;stop-opacity:1"/><stop offset="1" stop-color="#0056A8" style="stop-color:#cfcfcf;stop-opacity:1"/></radialGradient><radialGradient xlink:href="#a" id="c" cx=".179" cy="-1.748" r="1" fx=".179" fy="-1.748" gradientTransform="matrix(0 90.05947 -90.00681 0 -107.37 -11.19)" gradientUnits="userSpaceOnUse"/></defs><path d="M50 5C9.09 5 5 25.455 5 50c0 32.727 12.273 45 45 45 32.727 0 45-12.273 45-45 0-24.545-4.09-45-45-45Z" style="font-variation-settings:normal;display:inline;opacity:1;vector-effect:none;fill:url(#c);fill-opacity:1;stroke-width:4.56656;stroke-linecap:butt;stroke-linejoin:miter;stroke-miterlimit:4;stroke-dasharray:none;stroke-dashoffset:0;stroke-opacity:1;-inkscape-stroke:none;stop-color:#000;stop-opacity:1" transform="matrix(.24444 0 0 .24444 -.222 -.222)"/><g style="display:inline"><rect width="2" height="2" x="12" y="-3" rx="0" ry="0" style="display:inline;fill:#3947be;fill-opacity:1;stroke-width:22.6872;paint-order:markers stroke fill"/><rect width="2" height="2" x="9" y="-3" rx="0" ry="0" style="display:inline;fill:#6c7ad8;fill-opacity:1;stroke-width:22.6873;paint-order:markers stroke fill"/><rect width="2" height="2" x="6" y="-3" rx="0" ry="0" style="display:inline;fill:#3c3;fill-opacity:1;stroke-width:22.6873;paint-order:markers stroke fill"/><rect width="2" height="2" x="3" y="-3" rx="0" ry="0" style="display:inline;fill:#ffc328;fill-opacity:1;stroke-width:22.6872;paint-order:markers stroke fill"/><rect width="2" height="2" y="-3" rx="0" ry="0" style="display:inline;fill:#cc5e55;fill-opacity:1;stroke-width:22.6873;paint-order:markers stroke fill"/><rect width="2" height="2" x="-3" y="12" rx="0" ry="0" style="display:inline;fill:#0bb1cb;fill-opacity:1;stroke-width:22.6872;paint-order:markers stroke fill"/><rect width="2" height="2" x="-3" y="9" rx="0" ry="0" style="display:inline;fill:#2a92c9;fill-opacity:1;stroke-width:22.6873;paint-order:markers stroke fill"/><rect width="2" height="2" x="-3" y="6" rx="0" ry="0" style="display:inline;fill:#069;fill-opacity:1;stroke-width:22.6873;paint-order:markers stroke fill"/><rect width="2" height="2" x="-3" y="3" rx="0" ry="0" style="display:inline;fill:#002a44;fill-opacity:1;stroke-width:22.6873;paint-order:markers stroke fill"/><rect width="2" height="2" x="-3" rx="0" ry="0" style="display:inline;fill:#2c2d3d;fill-opacity:1;stroke-width:22.6873;paint-order:markers stroke fill"/><rect width="2" height="2" x="-3" y="-3" rx="0" ry="0" style="display:inline;fill:#16171c;fill-opacity:1;stroke-width:22.6872;paint-order:markers stroke fill"/></g><path fill="#78c2e0" d="M13.077 6.078c-3.769 0-4.846 1.771-4.846 4.307 0 2.535 1.077 4.307 4.846 4.307 1.077 0 1.991-.269 1.991-.269l1.24-4.038c.252-.825.383-1.077-.54-1.077H12.27a.806.806 0 0 0-.808.807c0 .448.36.808.808.808h1.737l-.579 2.126s-.104.028-.35.028c-2.422 0-3.23-.872-3.23-2.692 0-1.821.807-2.693 3.23-2.693H19l-.539-1.614h-5.384ZM5 9.308v1.615c0 3.866 2.693 7 8.077 7 3.23 0 4.845-1.077 5.922-2.693h-2.207c-.808.539-1.562 1.077-3.715 1.077-3.769 0-6.461-2.41-6.461-5.384V9.308Z" style="fill:#fff;fill-opacity:1;stroke-width:.458644"/></svg>
